X:1
T:Title
%%score 1 2
L:1/8
Q:1/4=78
M:2/4
K:G
V:1 treble nm="Grand Piano, Soprano"
V:2 bass nm="Choir Pad, Merry, Merry Christmas!"
V:1
 [Bd]/[Ac]/[GB]/[Ac]/ [Bd][GB] | [DG][FA] [GB]2 | [DB]/[CA]/[B,G]/[CA]/ [DB][CG] | D[CF] [B,G]2 | %4
w: By~Mrs.~Thomas~J.~Cook * * * * *||||
 [DA][Fd] [Fd]2 | [GB][Gd] [Gd]2 | [FA][Fe] [Gd][GB] | [FA][EG] [FA]2 | %8
w: ||||
 [Bd]/[Ac]/[GB]/[Ac]/ [Bd][GB] | [DG][FA] [GB]2 | [DB]/[CA]/[B,G]/[CA]/ [DB][B,G] | D[CF] [B,G]2 | %12
w: ||||
 [FA]>[GB] [Ac]>[FA] | [GB]>[Ac] [Bd]2 | [ce][Bd] [Ac][GB] | .[FA]4 | [B,G]>[CA] [DB]>[B,G] | %17
w: |||||
 [CE]>[DF] [EG]2 | [B,D][Dc] [DB][CA] | [B,G]4- | [B,G]2 z2 |] %21
w: ||||
V:2
 [G,D]/[G,D]/[G,D]/[G,D]/ [G,D][G,D] | [G,B,][D,D] [G,D]2 | %2
 [G,,G,]/[G,,G,]/[G,,G,]/[G,,G,]/ [G,,G,][G,,G,] | [D,B,][D,A,] [G,,G,]2 | [D,F,][D,A,] [E,A,]2 | %5
 G,[G,B,] [G,B,]2 | [D,C][D,C] [G,B,][G,D] | [D,D][D,D] [D,D]2 | %8
 [G,D]/[G,D]/[G,D]/[G,D]/ [G,D][G,D] | [G,B,][D,D] [G,D]2 | %10
 [G,,G,]/[G,,G,]/[G,,G,]/[G,,G,]/ [G,,G,][G,,G,] | [D,F,][D,A,] G,2 | [D,D]>[D,D] [D,D]>[D,D] | %13
 [G,D]>[G,D] [G,D]2 | [F,D][F,D] [F,D][G,D] | .[D,D]4 | [G,,G,]>[G,,G,] [G,,G,]>[G,,G,] | %17
 [C,G,]>[C,G,] [C,G,]2 | [D,G,][D,A,] [D,G,][D,F,] | [G,,G,]4- | [G,,G,]2 z2 |] %21

